X:427
T: ES WOHNTE EIN MEISTER ZU FRANKFURT
N: E1619
O: Europa, Mitteleuropa, Deutschland, Ober - Hessen, Nassau
R: Staende -, Handwerker -, Gesellen - Lied
M: 2/4
L: 1/16
K: G
D2 | G4F2E2 | E2D2D2
D2 | E2G2F2A2 | A4G2
D2 | G4F2E2 | E2D2D2
D2 | E2G2F2A2 | A4G2
GA | B2B2B2B2 | B4A2
B2 | c2c2d2B2 | A4z2
F2 | A2A2A2A2 | A2d2d2
c2 | B2B2A2A2 | G4z2

